X: 63
T: Praeludia organi op. 5 – Allegro moderato
C: Franciszek Walczyński
%%abc-version 2.0
%%abcx-abcm2ps-target-version 5.9.1 (29 Sep 2008)
%%abc-creator hum2abc beta
%%abcx-conversion-date 2021/10/04 07:38:39
%%abc-edited-by Andrzej Borzym
%%abc-edited-by Krzysztof Stępień
%%abcx-initial-encoding-date 2021-07-26
%%humdrum-veritas 1142455467
%%humdrum-veritas-data 903494265
%%linebreak <none>
%%barnumbers 0
L: 1/4
M: 3/4
N: Derived from pl-kozmzk--mzk-m-159--052_walczynski-franciszek--praeludia-organi-op-5-allegro-moderato.krn
Q: "52. Allegro moderato."
%%staves {1 2}
V: 1 clef=treble
V: 2 clef=bass
K: Gb
[V:1] z3 & z3 | 
[V:2] z3 & E,B,A, | 
[V:1] z3 & EBA | 
[V:2] z3 & G,2F, | 
[V:1] z3 & G2=G | 
[V:2] E,ED & E,3 | 
[V:1] Aed & AEF/=G/ | 
[V:2] C2B, & E,3 | 
[V:1] c2B & A2=G | 
[V:2] A,ED & A,,zz | 
[V:1] BA_G & E3 | 
[V:2] C2B, & z3 | 
[V:1] F/G/F/=E/F/_E/ & =C3 | 
[V:2] =A,3 & z3 | 
[V:1] =D3 & B,3 | 
[V:2] B,/_C/B,/_A,/G,/F,/ & z3 | 
[V:1] E2F & B,2=D | 
[V:2] G,E,A, & E,3- | 
[V:1] G2A & E3- | 
[V:2] B,G,C & E,2A,, | 
[V:1] F3- & E=D=C | 
[V:2] B,3- & B,,3- | 
[V:1] F3 & =D3 | 
[V:2] B,=A,_A, & B,,3 | 
[V:1] E3- & B,3- | 
[V:2] G,3- & E,,B,,A,, | 
[V:1] E3- & B,3- | 
[V:2] G,3- & G,,A,,F,, | 
[V:1] !fermata!E3 & B,3 |]  
[V:2] G,3 & !fermata!E,,3 |]  


